X: 14702
T: Gan Ainm
R: jig
M: 6/8
K: Gmajor
D|GGG G2 A|B2 c d3|dge dgd|ded dcB/A/|
GGG G2 A|B2 c d3|dgd edc|BcA G3||
B2 g d3|efg/e/ d3|cec BdB|ABc B2 G|
B2 B G3|AGF/G/ A3|ABG FGE|DFE D2 B||
c2 A B2 G|ABc B2 G|c2 A B2 G|ABc B2 G|
gfe edc|cBA ABc|def g2 e|^cdc d3||
BAG/F/ E3|edc/B/ A3|AGF/E/ D/F/AB/c/|d2 c B2 c2|
def ege|d3 def|efg a2 g|f2 d e3||

